X: 25264
T: Man In The Bog
R: jig
M: 6/8
K: Gmajor
|:G2G dGG|ABc AGE|DB,D G2A|BAG ABA|
G2G dGG|ABc AGE|DB,D G2A|1 BGF G2D:|2 BGF GBd||
g2g fed|efe dBA|BEE dEE|BAG ABd|
g2g fed|efe dBA|BGG dGG|ABA GBd|
g2g fed|efe dBA|BEE dEE|BAG ABA|
G2G dGG|ABc AGE|DB,D G2A|BGF G3||

